la/wordpress-simple.svg

<svg xmlns="http://www.w3.org/2000/svg" viewBox="0 0 32 32" height="1em" width="1em">
  <path d="M 16 3 C 8.828 3 3 8.828 3 16 C 3 23.172 8.828 29 16 29 C 23.172 29 29 23.172 29 16 C 29 8.828 23.172 3 16 3 z M 16 5.1679688 C 18.82516 5.1679688 21.382078 6.2468336 23.306641 8.0058594 C 23.265326 8.0050228 23.223641 7.9941406 23.171875 7.9941406 C 22.109875 7.9941406 21.417969 8.924875 21.417969 9.921875 C 21.417969 10.820875 21.870828 11.56975 22.423828 12.46875 C 22.834828 13.18375 23.3125 14.115266 23.3125 15.447266 C 23.3125 16.379266 22.965281 17.451031 22.488281 18.957031 L 21.417969 22.564453 L 17.351562 10.037109 C 18.001562 10.004109 18.585938 9.9394531 18.585938 9.9394531 C 19.170937 9.8744531 19.106484 9.0080156 18.521484 9.0410156 C 18.521484 9.0410156 16.766906 9.1816406 15.628906 9.1816406 C 14.567906 9.1816406 12.779297 9.0410156 12.779297 9.0410156 C 12.194297 9.0080156 12.129844 9.9074531 12.714844 9.9394531 C 12.714844 9.9394531 13.266563 10.004109 13.851562 10.037109 L 15.675781 15.544922 L 13.3125 22.652344 L 9.2148438 10.039062 C 9.8758438 10.006063 10.460938 9.9414062 10.460938 9.9414062 C 11.045937 9.8764062 10.970484 9.0099688 10.396484 9.0429688 C 10.396484 9.0429688 8.7146992 9.1764104 7.5761719 9.1816406 C 9.5589323 6.7317465 12.588121 5.1679688 16 5.1679688 z M 25.511719 10.800781 C 26.353267 12.342723 26.832031 14.112696 26.832031 16 C 26.832031 20.289463 24.358708 23.969277 20.759766 25.726562 C 20.993254 25.611348 21.225341 25.495998 21.449219 25.359375 L 24.753906 15.794922 C 25.370906 14.256922 25.576172 13.021016 25.576172 11.916016 C 25.576172 11.515016 25.555672 11.156547 25.513672 10.810547 C 25.51214 10.807602 25.513044 10.803788 25.511719 10.800781 z M 6.203125 11.384766 L 11.265625 25.740234 C 7.6526246 23.988039 5.1679688 20.299746 5.1679688 16 C 5.1679688 14.344834 5.5451007 12.785069 6.203125 11.384766 z M 16.183594 16.943359 L 19.521484 26.074219 C 19.54289 26.12676 19.564216 26.170993 19.595703 26.212891 C 18.469939 26.60708 17.263759 26.832031 16 26.832031 C 14.933113 26.832031 13.905924 26.673405 12.933594 26.388672 L 16.183594 16.943359 z M 11.396484 25.802734 C 11.677917 25.93153 11.962244 26.048201 12.25 26.158203 C 11.959161 26.051366 11.674854 25.933131 11.396484 25.802734 z M 20.416016 25.892578 C 20.187559 25.99425 19.953374 26.083895 19.716797 26.169922 C 19.954263 26.087148 20.187264 25.993584 20.416016 25.892578 z M 12.560547 26.271484 C 12.676284 26.309724 12.791365 26.347933 12.910156 26.382812 C 12.79235 26.348028 12.676619 26.310112 12.560547 26.271484 z"/>
</svg>

<svg xmlns="http://www.w3.org/2000/svg" viewBox="0 0 32 32" height="1em" width="1em">
  <path d="M16 3C8.828 3 3 8.828 3 16s5.828 13 13 13 13-5.828 13-13S23.172 3 16 3zm0 2.168c2.825 0 5.382 1.079 7.307 2.838-.042-.001-.083-.012-.135-.012-1.062 0-1.754.93-1.754 1.928 0 .899.453 1.648 1.006 2.547.41.715.889 1.646.889 2.978 0 .932-.348 2.004-.825 3.51l-1.07 3.607-4.066-12.527a23.51 23.51 0 0 0 1.234-.098c.585-.065.52-.931-.065-.898 0 0-1.754.14-2.892.14-1.061 0-2.85-.14-2.85-.14-.585-.033-.65.866-.064.898 0 0 .552.065 1.137.098l1.824 5.508-2.364 7.107L9.215 10.04a23.408 23.408 0 0 0 1.246-.098c.585-.065.51-.931-.065-.898 0 0-1.681.133-2.82.139A10.795 10.795 0 0 1 16 5.168zm9.512 5.633A10.815 10.815 0 0 1 26.832 16a10.796 10.796 0 0 1-5.383 9.36l3.305-9.565c.617-1.538.822-2.774.822-3.879 0-.401-.02-.76-.062-1.105-.002-.003-.001-.007-.002-.01zm-19.309.584 5.063 14.355A10.797 10.797 0 0 1 5.168 16c0-1.655.377-3.215 1.035-4.615zm9.98 5.558 3.338 9.131a.595.595 0 0 0 .075.139 10.855 10.855 0 0 1-3.596.619 10.91 10.91 0 0 1-3.066-.443l3.25-9.446zm-4.787 8.86zm9.02.09zm-7.855.378z"/>
</svg>
